addons/hoimar.planetgen/resources/icons/solar_system.svg

<svg fill-rule="evenodd" height="32" preserveAspectRatio="xMidYMid" stroke-linejoin="round" stroke-width="28.222" viewBox="0 0 846.66659 846.66659" width="32" xmlns="http://www.w3.org/2000/svg" xmlns:xlink="http://www.w3.org/1999/xlink"><clipPath id="a"><path d="m0 0h600v600h-600z"/></clipPath><clipPath id="b"><path d="m25 25h550v550h-550z"/></clipPath><g clip-path="url(#a)" transform="matrix(1.5366 0 0 1.5366 -38.415 -38.41501)"><path d="m25 25h551v551h-551z" fill="none"/><g clip-path="url(#b)"><path d="m163 300c0 75 62 137 137 137 20 0 40-5 57-13-1-4-2-9-2-14 0-30 24-54 54-54 5 0 10 1 14 3 9-18 14-38 14-59 0-75-62-137-137-137s-137 62-137 137zm308 0c0 28-7 55-19 78 6 9 10 20 10 32 0 30-24 54-53 54-13 0-24-5-33-11-23 11-49 18-76 18-94 0-171-77-171-171s77-171 171-171 171 77 171 171z" fill="#90a0be"/><path d="m300 258c23 0 42 19 42 42s-19 42-42 42-42-19-42-42 19-42 42-42z" fill="#fede94"/><path d="m300 342c23 0 42-19 42-42s-19-42-42-42-42 19-42 42 19 42 42 42zm0-118c42 0 76 34 76 76s-34 76-76 76-76-34-76-76 34-76 76-76z" fill="#90a0be"/><path d="m118 163c-27 0-49-22-49-49s22-49 49-49 49 22 49 49-22 49-49 49z" fill="#fede94"/><path d="m118 163c27 0 49-22 49-49s-22-49-49-49-49 22-49 49 22 49 49 49zm182-138c152 0 275 123 275 275s-123 275-275 275-275-123-275-275c0-47 12-91 32-129-13-15-22-35-22-57 0-46 37-83 83-83 23 0 43 9 58 24 38-19 80-30 124-30zm241 275c0-133-108-241-241-241-37 0-73 8-105 24 4 9 6 20 6 31 0 46-37 83-83 83-12 0-23-2-33-7-17 33-26 71-26 110 0 133 108 241 241 241s241-108 241-241z" fill="#90a0be"/></g></g></svg>

<?xml version="1.0" encoding="UTF-8"?>
<!DOCTYPE svg PUBLIC "-//W3C//DTD SVG 1.1//EN" "http://www.w3.org/Graphics/SVG/1.1/DTD/svg11.dtd">
<svg version="1.2" width="6mm" height="6mm" viewBox="0 0 600 600" preserveAspectRatio="xMidYMid" fill-rule="evenodd" stroke-width="28.222" stroke-linejoin="round" xmlns="http://www.w3.org/2000/svg" xmlns:ooo="http://xml.openoffice.org/svg/export" xmlns:xlink="http://www.w3.org/1999/xlink" xmlns:presentation="http://sun.com/xmlns/staroffice/presentation" xmlns:smil="http://www.w3.org/2001/SMIL20/" xmlns:anim="urn:oasis:names:tc:opendocument:xmlns:animation:1.0" xml:space="preserve">
 <defs class="ClipPathGroup">
  <clipPath id="presentation_clip_path" clipPathUnits="userSpaceOnUse">
   <rect x="0" y="0" width="600" height="600"/>
  </clipPath>
  <clipPath id="presentation_clip_path_shrink" clipPathUnits="userSpaceOnUse">
   <rect x="0" y="0" width="599" height="599"/>
  </clipPath>
 </defs>
 <defs class="TextShapeIndex">
  <g ooo:slide="id1" ooo:id-list="id3"/>
 </defs>
 <defs class="EmbeddedBulletChars">
  <g id="bullet-char-template-57356" transform="scale(0.00048828125,-0.00048828125)">
   <path d="M 580,1141 L 1163,571 580,0 -4,571 580,1141 Z"/>
  </g>
  <g id="bullet-char-template-57354" transform="scale(0.00048828125,-0.00048828125)">
   <path d="M 8,1128 L 1137,1128 1137,0 8,0 8,1128 Z"/>
  </g>
  <g id="bullet-char-template-10146" transform="scale(0.00048828125,-0.00048828125)">
   <path d="M 174,0 L 602,739 174,1481 1456,739 174,0 Z M 1358,739 L 309,1346 659,739 1358,739 Z"/>
  </g>
  <g id="bullet-char-template-10132" transform="scale(0.00048828125,-0.00048828125)">
   <path d="M 2015,739 L 1276,0 717,0 1260,543 174,543 174,936 1260,936 717,1481 1274,1481 2015,739 Z"/>
  </g>
  <g id="bullet-char-template-10007" transform="scale(0.00048828125,-0.00048828125)">
   <path d="M 0,-2 C -7,14 -16,27 -25,37 L 356,567 C 262,823 215,952 215,954 215,979 228,992 255,992 264,992 276,990 289,987 310,991 331,999 354,1012 L 381,999 492,748 772,1049 836,1024 860,1049 C 881,1039 901,1025 922,1006 886,937 835,863 770,784 769,783 710,716 594,584 L 774,223 C 774,196 753,168 711,139 L 727,119 C 717,90 699,76 672,76 641,76 570,178 457,381 L 164,-76 C 142,-110 111,-127 72,-127 30,-127 9,-110 8,-76 1,-67 -2,-52 -2,-32 -2,-23 -1,-13 0,-2 Z"/>
  </g>
  <g id="bullet-char-template-10004" transform="scale(0.00048828125,-0.00048828125)">
   <path d="M 285,-33 C 182,-33 111,30 74,156 52,228 41,333 41,471 41,549 55,616 82,672 116,743 169,778 240,778 293,778 328,747 346,684 L 369,508 C 377,444 397,411 428,410 L 1163,1116 C 1174,1127 1196,1133 1229,1133 1271,1133 1292,1118 1292,1087 L 1292,965 C 1292,929 1282,901 1262,881 L 442,47 C 390,-6 338,-33 285,-33 Z"/>
  </g>
  <g id="bullet-char-template-9679" transform="scale(0.00048828125,-0.00048828125)">
   <path d="M 813,0 C 632,0 489,54 383,161 276,268 223,411 223,592 223,773 276,916 383,1023 489,1130 632,1184 813,1184 992,1184 1136,1130 1245,1023 1353,916 1407,772 1407,592 1407,412 1353,268 1245,161 1136,54 992,0 813,0 Z"/>
  </g>
  <g id="bullet-char-template-8226" transform="scale(0.00048828125,-0.00048828125)">
   <path d="M 346,457 C 273,457 209,483 155,535 101,586 74,649 74,723 74,796 101,859 155,911 209,963 273,989 346,989 419,989 480,963 531,910 582,859 608,796 608,723 608,648 583,586 532,535 482,483 420,457 346,457 Z"/>
  </g>
  <g id="bullet-char-template-8211" transform="scale(0.00048828125,-0.00048828125)">
   <path d="M -4,459 L 1135,459 1135,606 -4,606 -4,459 Z"/>
  </g>
  <g id="bullet-char-template-61548" transform="scale(0.00048828125,-0.00048828125)">
   <path d="M 173,740 C 173,903 231,1043 346,1159 462,1274 601,1332 765,1332 928,1332 1067,1274 1183,1159 1299,1043 1357,903 1357,740 1357,577 1299,437 1183,322 1067,206 928,148 765,148 601,148 462,206 346,322 231,437 173,577 173,740 Z"/>
  </g>
 </defs>
 <g>
  <g id="id2" class="Master_Slide">
   <g id="bg-id2" class="Background"/>
   <g id="bo-id2" class="BackgroundObjects"/>
  </g>
 </g>
 <g class="SlideGroup">
  <g>
   <g id="container-id1">
    <g id="id1" class="Slide" clip-path="url(#presentation_clip_path)">
     <g class="Page">
      <g class="Graphic">
       <g id="id3">
        <rect class="BoundingBox" stroke="none" fill="none" x="25" y="25" width="551" height="551"/>
        <defs>
         <clipPath id="clip_path_1" clipPathUnits="userSpaceOnUse">
          <path d="M 25,25 L 575,25 575,575 25,575 25,25 Z"/>
         </clipPath>
        </defs>
        <g clip-path="url(#clip_path_1)">
         <path fill="rgb(144,160,190)" stroke="none" d="M 163,300 C 163,375 225,437 300,437 320,437 340,432 357,424 356,420 355,415 355,410 355,380 379,356 409,356 414,356 419,357 423,359 432,341 437,321 437,300 437,225 375,163 300,163 225,163 163,225 163,300 L 163,300 Z M 471,300 C 471,328 464,355 452,378 458,387 462,398 462,410 462,440 438,464 409,464 396,464 385,459 376,453 353,464 327,471 300,471 206,471 129,394 129,300 129,206 206,129 300,129 394,129 471,206 471,300 L 471,300 Z"/>
         <path fill="rgb(254,222,148)" stroke="none" d="M 300,258 C 323,258 342,277 342,300 342,323 323,342 300,342 277,342 258,323 258,300 258,277 277,258 300,258 L 300,258 Z"/>
         <path fill="rgb(144,160,190)" stroke="none" d="M 300,342 C 323,342 342,323 342,300 342,277 323,258 300,258 277,258 258,277 258,300 258,323 277,342 300,342 L 300,342 Z M 300,224 C 342,224 376,258 376,300 376,342 342,376 300,376 258,376 224,342 224,300 224,258 258,224 300,224 L 300,224 Z"/>
         <path fill="rgb(254,222,148)" stroke="none" d="M 118,163 C 91,163 69,141 69,114 69,87 91,65 118,65 145,65 167,87 167,114 167,141 145,163 118,163 L 118,163 Z"/>
         <path fill="rgb(144,160,190)" stroke="none" d="M 118,163 C 145,163 167,141 167,114 167,87 145,65 118,65 91,65 69,87 69,114 69,141 91,163 118,163 L 118,163 Z M 300,25 C 452,25 575,148 575,300 575,452 452,575 300,575 148,575 25,452 25,300 25,253 37,209 57,171 44,156 35,136 35,114 35,68 72,31 118,31 141,31 161,40 176,55 214,36 256,25 300,25 L 300,25 Z M 541,300 C 541,167 433,59 300,59 263,59 227,67 195,83 199,92 201,103 201,114 201,160 164,197 118,197 106,197 95,195 85,190 68,223 59,261 59,300 59,433 167,541 300,541 433,541 541,433 541,300 L 541,300 Z"/>
        </g>
       </g>
      </g>
     </g>
    </g>
   </g>
  </g>
 </g>
</svg>
